gtk-icons/Papirus-Dark-GTK/16x16/actions/insert-table.svg

<?xml version="1.0" encoding="UTF-8" standalone="no"?>
<!-- Created with Inkscape (http://www.inkscape.org/) -->

<svg
   xmlns:osb="http://www.openswatchbook.org/uri/2009/osb"
   xmlns:dc="http://purl.org/dc/elements/1.1/"
   xmlns:cc="http://creativecommons.org/ns#"
   xmlns:rdf="http://www.w3.org/1999/02/22-rdf-syntax-ns#"
   xmlns:svg="http://www.w3.org/2000/svg"
   xmlns="http://www.w3.org/2000/svg"
   xmlns:sodipodi="http://sodipodi.sourceforge.net/DTD/sodipodi-0.dtd"
   xmlns:inkscape="http://www.inkscape.org/namespaces/inkscape"
   sodipodi:docname="insert-table.svg"
   inkscape:export-filename="/home/sam/source-symbolic.png"
   inkscape:export-xdpi="270"
   inkscape:export-ydpi="270"
   height="16"
   id="svg7384"
   style="enable-background:new"
   version="1.1"
   inkscape:version="0.91 r"
   width="16">
  <sodipodi:namedview
     inkscape:bbox-nodes="true"
     inkscape:bbox-paths="false"
     bordercolor="#666666"
     borderlayer="false"
     borderopacity="1"
     inkscape:current-layer="layer12"
     inkscape:cx="7.5089681"
     inkscape:cy="9.4661034"
     gridtolerance="10"
     inkscape:guide-bbox="true"
     guidetolerance="10"
     id="namedview88"
     inkscape:object-nodes="true"
     inkscape:object-paths="true"
     objecttolerance="10"
     pagecolor="#f7f7f7"
     inkscape:pageopacity="1"
     inkscape:pageshadow="2"
     showborder="true"
     showgrid="false"
     showguides="true"
     inkscape:showpageshadow="false"
     inkscape:snap-bbox="true"
     inkscape:snap-bbox-edge-midpoints="false"
     inkscape:snap-bbox-midpoints="true"
     inkscape:snap-center="false"
     inkscape:snap-global="true"
     inkscape:snap-grids="true"
     inkscape:snap-intersection-paths="true"
     inkscape:snap-midpoints="true"
     inkscape:snap-nodes="true"
     inkscape:snap-object-midpoints="true"
     inkscape:snap-others="true"
     inkscape:snap-page="false"
     inkscape:snap-smooth-nodes="true"
     inkscape:snap-to-guides="true"
     inkscape:window-height="838"
     inkscape:window-maximized="1"
     inkscape:window-width="1600"
     inkscape:window-x="-2"
     inkscape:window-y="32"
     inkscape:zoom="19.88">
    <inkscape:grid
       color="#ffffff"
       dotted="false"
       empcolor="#0800ff"
       empopacity="0.4627451"
       empspacing="4"
       enabled="true"
       id="grid4866"
       opacity="0.16470588"
       originx="-24.000624"
       originy="-176.00334"
       snapvisiblegridlinesonly="true"
       spacingx="0.25px"
       spacingy="0.25px"
       type="xygrid"
       visible="true" />
  </sodipodi:namedview>
  <metadata
     id="metadata90">
    <rdf:RDF>
      <cc:Work
         rdf:about="">
        <dc:format>image/svg+xml</dc:format>
        <dc:type
           rdf:resource="http://purl.org/dc/dcmitype/StillImage" />
        <dc:title>Paper Symbolic Icon Theme</dc:title>
      </cc:Work>
    </rdf:RDF>
  </metadata>
  <title
     id="title8473">Paper Symbolic Icon Theme</title>
  <defs
     id="defs7386">
    <linearGradient
       id="linearGradient5606"
       osb:paint="solid">
      <stop
         id="stop5608"
         offset="0"
         style="stop-color:#ffffff;stop-opacity:1;" />
    </linearGradient>
    <filter
       inkscape:collect="always"
       id="filter7554"
       style="color-interpolation-filters:sRGB">
      <feBlend
         inkscape:collect="always"
         id="feBlend7556"
         in2="BackgroundImage"
         mode="darken" />
    </filter>
  </defs>
  <g
     inkscape:groupmode="layer"
     id="layer9"
     inkscape:label="status"
     style="display:inline"
     transform="translate(-265.00082,-40.996658)" />
  <g
     inkscape:groupmode="layer"
     id="layer10"
     inkscape:label="devices"
     style="display:inline;filter:url(#filter7554)"
     transform="translate(-265.00082,-40.996658)" />
  <g
     inkscape:groupmode="layer"
     id="layer1"
     inkscape:label="places"
     style="display:inline"
     transform="translate(-24.000624,-657.99666)" />
  <g
     inkscape:groupmode="layer"
     id="layer14"
     inkscape:label="mimetypes"
     style="display:inline"
     transform="translate(-265.00082,-40.996658)" />
  <g
     inkscape:groupmode="layer"
     id="layer15"
     inkscape:label="emblems"
     style="display:inline"
     transform="translate(-265.00082,-40.996658)" />
  <g
     inkscape:groupmode="layer"
     id="g71291"
     inkscape:label="emotes"
     style="display:inline"
     transform="translate(-265.00082,-40.996658)" />
  <g
     inkscape:groupmode="layer"
     id="layer2"
     inkscape:label="categories"
     style="display:inline"
     transform="translate(-24.000624,-507.99666)" />
  <g
     inkscape:groupmode="layer"
     id="g6058"
     inkscape:label="apps"
     style="display:inline"
     transform="translate(-24.000624,-507.99666)" />
  <g
     inkscape:groupmode="layer"
     id="layer12"
     inkscape:label="actions"
     style="display:inline"
     transform="translate(-265.00082,-40.996658)">
    <path
       style="opacity:0.72;fill:#ffffff;fill-opacity:1;stroke:none;stroke-width:4;stroke-miterlimit:4;stroke-dasharray:none;stroke-opacity:1"
       d="M 1 1 L 1 3 L 1 5.0039062 L 1 7.0039062 L 1 9.0039062 L 1 11.003906 L 1 13 L 1 15 L 3 15 L 7 15 L 7 13 L 7 7.0039062 L 15 7.0039062 L 15 5.0039062 L 15 1 L 3 1 L 1 1 z M 3 3 L 5 3 L 5 5.0039062 L 3 5.0039062 L 3 3 z M 7 3 L 9 3 L 9 5.0039062 L 7 5.0039062 L 7 3 z M 11 3 L 13 3 L 13 5.0039062 L 11 5.0039062 L 11 3 z M 3 7.0039062 L 5 7.0039062 L 5 9.0039062 L 3 9.0039062 L 3 7.0039062 z M 11 9.0039062 L 11 11.003906 L 9 11.003906 L 9 13.003906 L 11 13.003906 L 11 15.003906 L 13 15.003906 L 13 13.003906 L 15 13.003906 L 15 11.003906 L 13 11.003906 L 13 9.0039062 L 11 9.0039062 z M 3 11.003906 L 5 11.003906 L 5 13 L 3 13 L 3 11.003906 z "
       transform="translate(265.00082,40.996658)"
       id="path4156" />
  </g>
</svg>

<?xml version="1.0" encoding="UTF-8" standalone="no"?>
<!-- Created with Inkscape (http://www.inkscape.org/) -->
<svg id="svg7384" xmlns:rdf="http://www.w3.org/1999/02/22-rdf-syntax-ns#" style="enable-background:new" xmlns="http://www.w3.org/2000/svg" xmlns:osb="http://www.openswatchbook.org/uri/2009/osb" height="16" width="16" version="1.1" xmlns:cc="http://creativecommons.org/ns#" xmlns:dc="http://purl.org/dc/elements/1.1/">
 <metadata id="metadata90">
  <rdf:RDF>
   <cc:Work rdf:about="">
    <dc:format>image/svg+xml</dc:format>
    <dc:type rdf:resource="http://purl.org/dc/dcmitype/StillImage"/>
    <dc:title>Paper Symbolic Icon Theme</dc:title>
   </cc:Work>
  </rdf:RDF>
 </metadata>
 <title id="title8473">Paper Symbolic Icon Theme</title>
 <defs id="defs7386">
  <filter id="filter7554" style="color-interpolation-filters:sRGB">
   <feBlend id="feBlend7556" in2="BackgroundImage" mode="darken"/>
  </filter>
 </defs>
 <g id="layer12" transform="translate(-265 -40.997)">
  <path id="path4156" opacity=".72" d="m1 1v2 2.0039 2 2 2.0001 1.996 2h2 4v-2-5.9961h8v-2-4.0039h-12-2zm2 2h2v2.0039h-2v-2.0039zm4 0h2v2.0039h-2v-2.0039zm4 0h2v2.0039h-2v-2.0039zm-8 4.0039h2v2h-2v-2zm8 2v2.0001h-2v2h2v2h2v-2h2v-2h-2v-2.0001h-2zm-8 2.0001h2v1.996h-2v-1.996z" transform="translate(265 40.997)" fill="#fff"/>
 </g>
</svg>
